Newaita-dark/mimetypes/24/application-x-arj.svg

<?xml version="1.0" encoding="UTF-8"?>
<svg xmlns="http://www.w3.org/2000/svg" xmlns:xlink="http://www.w3.org/1999/xlink" width="24px" height="24px" viewBox="0 0 24 24" version="1.1">
<defs>
<linearGradient id="linear0" gradientUnits="userSpaceOnUse" x1="254" y1="233.5" x2="254" y2="254.666672" gradientTransform="matrix(0.0468795,0,0,0.0468795,-0.0000028613,10.079089)">
<stop offset="0" style="stop-color:rgb(0%,0%,0%);stop-opacity:0.27451;"/>
<stop offset="1" style="stop-color:rgb(0%,0%,0%);stop-opacity:0;"/>
</linearGradient>
<radialGradient id="radial0" gradientUnits="userSpaceOnUse" cx="450.908936" cy="189.579361" fx="450.908936" fy="189.579361" r="21.166656" gradientTransform="matrix(0.000000130628,-0.0585994,-0.105479,-0.0000000761539,39.842197,47.696499)">
<stop offset="0" style="stop-color:rgb(0%,0%,0%);stop-opacity:0.313726;"/>
<stop offset="0.222222" style="stop-color:rgb(0%,0%,0%);stop-opacity:0.27451;"/>
<stop offset="1" style="stop-color:rgb(0%,0%,0%);stop-opacity:0;"/>
</radialGradient>
<radialGradient id="radial1" gradientUnits="userSpaceOnUse" cx="450.908936" cy="189.579361" fx="450.908936" fy="189.579361" r="21.166656" gradientTransform="matrix(-0.000000130628,0.0585994,0.105479,0.0000000761539,-15.90339,-5.645609)">
<stop offset="0" style="stop-color:rgb(0%,0%,0%);stop-opacity:0.313726;"/>
<stop offset="0.222222" style="stop-color:rgb(0%,0%,0%);stop-opacity:0.27451;"/>
<stop offset="1" style="stop-color:rgb(0%,0%,0%);stop-opacity:0;"/>
</radialGradient>
<radialGradient id="radial2" gradientUnits="userSpaceOnUse" cx="450.908936" cy="189.579361" fx="450.908936" fy="189.579361" r="21.166656" gradientTransform="matrix(-0.000000130628,-0.0585994,0.105479,-0.0000000761539,-15.90339,47.696499)">
<stop offset="0" style="stop-color:rgb(0%,0%,0%);stop-opacity:0.313726;"/>
<stop offset="0.222222" style="stop-color:rgb(0%,0%,0%);stop-opacity:0.27451;"/>
<stop offset="1" style="stop-color:rgb(0%,0%,0%);stop-opacity:0;"/>
</radialGradient>
<radialGradient id="radial3" gradientUnits="userSpaceOnUse" cx="450.908936" cy="189.579361" fx="450.908936" fy="189.579361" r="21.166656" gradientTransform="matrix(0.000000130628,0.0585994,-0.105479,0.0000000761539,39.842196,-5.64561)">
<stop offset="0" style="stop-color:rgb(0%,0%,0%);stop-opacity:0.313726;"/>
<stop offset="0.222222" style="stop-color:rgb(0%,0%,0%);stop-opacity:0.27451;"/>
<stop offset="1" style="stop-color:rgb(0%,0%,0%);stop-opacity:0;"/>
</radialGradient>
<linearGradient id="linear1" gradientUnits="userSpaceOnUse" x1="254" y1="-168.666656" x2="254" y2="233.5" gradientTransform="matrix(0.0468795,0,0,0.0468795,0,10.079087)">
<stop offset="0" style="stop-color:rgb(73.725492%,66.666669%,64.313728%);stop-opacity:1;"/>
<stop offset="1" style="stop-color:rgb(63.137257%,53.333336%,49.803922%);stop-opacity:1;"/>
</linearGradient>
<linearGradient id="linear2" gradientUnits="userSpaceOnUse" x1="148.166687" y1="-168.666809" x2="148.166687" y2="233.499863" gradientTransform="matrix(1,0,0,1,-31.750023,0.000142415)">
<stop offset="0" style="stop-color:rgb(63.137257%,53.333336%,49.803922%);stop-opacity:1;"/>
<stop offset="1" style="stop-color:rgb(55.29412%,43.137255%,38.82353%);stop-opacity:1;"/>
</linearGradient>
<linearGradient id="linear3" gradientUnits="userSpaceOnUse" x1="148.166687" y1="-168.666809" x2="148.166687" y2="233.499863" gradientTransform="matrix(1,0,0,1,201.083313,0.000142415)">
<stop offset="0" style="stop-color:rgb(63.137257%,53.333336%,49.803922%);stop-opacity:1;"/>
<stop offset="1" style="stop-color:rgb(55.29412%,43.137255%,38.82353%);stop-opacity:1;"/>
</linearGradient>
<linearGradient id="linear4" gradientUnits="userSpaceOnUse" x1="960" y1="1115.118164" x2="960" y2="675.118103" gradientTransform="matrix(0.264583,0,0,0.264583,-116.416687,-215)">
<stop offset="0" style="stop-color:rgb(74.117649%,74.117649%,74.117649%);stop-opacity:1;"/>
<stop offset="1" style="stop-color:rgb(87.843138%,87.843138%,87.843138%);stop-opacity:1;"/>
</linearGradient>
<linearGradient id="linear5" gradientUnits="userSpaceOnUse" x1="164.041641" y1="64.166664" x2="164.041641" y2="0.666662" gradientTransform="matrix(1,0,0,1,-21.16667,42.33334)">
<stop offset="0" style="stop-color:rgb(74.117649%,74.117649%,74.117649%);stop-opacity:1;"/>
<stop offset="1" style="stop-color:rgb(87.843138%,87.843138%,87.843138%);stop-opacity:1;"/>
</linearGradient>
<linearGradient id="linear6" gradientUnits="userSpaceOnUse" x1="158.75" y1="-115.75" x2="158.75" y2="286.416656" gradientTransform="matrix(1,0,0,1,-21.16667,-52.91666)">
<stop offset="0" style="stop-color:rgb(73.725492%,66.666669%,64.313728%);stop-opacity:1;"/>
<stop offset="1" style="stop-color:rgb(63.137257%,53.333336%,49.803922%);stop-opacity:1;"/>
</linearGradient>
<linearGradient id="linear7" gradientUnits="userSpaceOnUse" x1="960" y1="1115.118164" x2="960" y2="675.118103" gradientTransform="matrix(0.264583,0,0,0.264583,116.416649,-215)">
<stop offset="0" style="stop-color:rgb(74.117649%,74.117649%,74.117649%);stop-opacity:1;"/>
<stop offset="1" style="stop-color:rgb(87.843138%,87.843138%,87.843138%);stop-opacity:1;"/>
</linearGradient>
<linearGradient id="linear8" gradientUnits="userSpaceOnUse" x1="164.041641" y1="64.166664" x2="164.041641" y2="0.666662" gradientTransform="matrix(1,0,0,1,211.666672,42.33334)">
<stop offset="0" style="stop-color:rgb(74.117649%,74.117649%,74.117649%);stop-opacity:1;"/>
<stop offset="1" style="stop-color:rgb(87.843138%,87.843138%,87.843138%);stop-opacity:1;"/>
</linearGradient>
<linearGradient id="linear9" gradientUnits="userSpaceOnUse" x1="158.75" y1="-115.75" x2="158.75" y2="286.416656" gradientTransform="matrix(1,0,0,1,211.666672,-52.91666)">
<stop offset="0" style="stop-color:rgb(73.725492%,66.666669%,64.313728%);stop-opacity:1;"/>
<stop offset="1" style="stop-color:rgb(63.137257%,53.333336%,49.803922%);stop-opacity:1;"/>
</linearGradient>
</defs>
<g id="surface1">
<path style=" stroke:none;fill-rule:nonzero;fill:rgb(0%,0%,0%);fill-opacity:0.196078;" d="M 2.976562 21.027344 C 2.425781 21.027344 1.984375 20.582031 1.984375 20.03125 L 1.984375 19.910156 C 1.984375 20.457031 2.425781 20.902344 2.976562 20.902344 L 20.839844 20.902344 C 21.386719 20.902344 21.832031 20.457031 21.832031 19.910156 L 21.832031 20.03125 C 21.832031 20.582031 21.386719 21.027344 20.839844 21.027344 Z M 2.976562 21.027344 "/>
<path style=" stroke:none;fill-rule:nonzero;fill:url(#linear0);" d="M 3.84375 21.027344 L 20.09375 21.027344 L 20.09375 22.019531 L 3.84375 22.019531 Z M 3.84375 21.027344 "/>
<path style=" stroke:none;fill-rule:nonzero;fill:url(#radial0);" d="M 20.09375 21.027344 L 22.078125 21.027344 L 22.078125 20.03125 L 20.09375 20.03125 Z M 20.09375 21.027344 "/>
<path style=" stroke:none;fill-rule:nonzero;fill:url(#radial1);" d="M 3.84375 21.027344 L 1.859375 21.027344 L 1.859375 22.019531 L 3.84375 22.019531 Z M 3.84375 21.027344 "/>
<path style=" stroke:none;fill-rule:nonzero;fill:url(#radial2);" d="M 3.84375 21.027344 L 1.859375 21.027344 L 1.859375 20.03125 L 3.84375 20.03125 Z M 3.84375 21.027344 "/>
<path style=" stroke:none;fill-rule:nonzero;fill:url(#radial3);" d="M 20.09375 21.027344 L 22.078125 21.027344 L 22.078125 22.019531 L 20.09375 22.019531 Z M 20.09375 21.027344 "/>
<path style=" stroke:none;fill-rule:nonzero;fill:url(#linear1);" d="M 2.730469 2.171875 L 21.085938 2.171875 C 21.496094 2.171875 21.832031 2.503906 21.832031 2.917969 L 21.832031 20.28125 C 21.832031 20.691406 21.496094 21.027344 21.085938 21.027344 L 2.730469 21.027344 C 2.316406 21.027344 1.984375 20.691406 1.984375 20.28125 L 1.984375 2.917969 C 1.984375 2.503906 2.316406 2.171875 2.730469 2.171875 Z M 2.730469 2.171875 "/>
<path style=" stroke:none;fill-rule:nonzero;fill:rgb(100%,100%,100%);fill-opacity:0.392157;" d="M 2.730469 2.171875 C 2.316406 2.171875 1.984375 2.503906 1.984375 2.917969 L 1.984375 3.164062 C 1.984375 2.753906 2.316406 2.421875 2.730469 2.421875 L 21.085938 2.421875 C 21.5 2.421875 21.832031 2.753906 21.832031 3.164062 L 21.832031 2.917969 C 21.832031 2.503906 21.5 2.171875 21.085938 2.171875 Z M 2.730469 2.171875 "/>
<path style=" stroke:none;fill-rule:nonzero;fill:rgb(1.960784%,1.960784%,1.960784%);fill-opacity:0.235294;" d="M 2.730469 21.027344 C 2.316406 21.027344 1.984375 20.695312 1.984375 20.28125 L 1.984375 20.03125 C 1.984375 20.445312 2.316406 20.777344 2.730469 20.777344 L 21.085938 20.777344 C 21.5 20.777344 21.832031 20.445312 21.832031 20.03125 L 21.832031 20.28125 C 21.832031 20.695312 21.5 21.027344 21.085938 21.027344 Z M 2.730469 21.027344 "/>
<path style=" stroke:none;fill-rule:nonzero;fill:rgb(12.941177%,12.941177%,12.941177%);fill-opacity:1;" d="M 2.730469 2.101562 C 2.277344 2.101562 1.914062 2.464844 1.914062 2.917969 L 1.914062 20.28125 C 1.914062 20.730469 2.277344 21.097656 2.730469 21.097656 L 21.085938 21.097656 C 21.535156 21.097656 21.902344 20.730469 21.902344 20.28125 L 21.902344 2.917969 C 21.902344 2.464844 21.535156 2.101562 21.085938 2.101562 Z M 2.730469 2.242188 L 21.085938 2.242188 C 21.460938 2.242188 21.761719 2.542969 21.761719 2.917969 L 21.761719 20.28125 C 21.761719 20.65625 21.460938 20.957031 21.085938 20.957031 L 2.730469 20.957031 C 2.355469 20.957031 2.054688 20.65625 2.054688 20.28125 L 2.054688 2.917969 C 2.054688 2.542969 2.355469 2.242188 2.730469 2.242188 Z M 2.730469 2.242188 "/>
<path style="fill-rule:nonzero;fill:url(#linear2);stroke-width:3;stroke-linecap:round;stroke-linejoin:miter;stroke:rgb(12.941177%,12.941177%,12.941177%);stroke-opacity:1;stroke-miterlimit:4;" d="M 105.823228 -62.847863 L 169.317164 -62.847863 C 175.149941 -62.847863 179.899487 -58.098317 179.899487 -52.26554 L 179.899487 106.469301 C 179.899487 112.385403 175.149941 117.051624 169.317164 117.051624 L 105.823228 117.051624 C 99.990451 117.051624 95.240905 112.385403 95.240905 106.469301 L 95.240905 -52.26554 C 95.240905 -58.098317 99.990451 -62.847863 105.823228 -62.847863 Z M 105.823228 -62.847863 " transform="matrix(0.0468795,0,0,0.0468795,0,10.079087)"/>
<path style="fill-rule:nonzero;fill:url(#linear3);stroke-width:3;stroke-linecap:round;stroke-linejoin:miter;stroke:rgb(12.941177%,12.941177%,12.941177%);stroke-opacity:1;stroke-miterlimit:4;" d="M 338.634329 -62.847863 L 402.128265 -62.847863 C 408.044367 -62.847863 412.710588 -58.098317 412.710588 -52.26554 L 412.710588 106.469301 C 412.710588 112.385403 408.044367 117.051624 402.128265 117.051624 L 338.634329 117.051624 C 332.801552 117.051624 328.052006 112.385403 328.052006 106.469301 L 328.052006 -52.26554 C 328.052006 -58.098317 332.801552 -62.847863 338.634329 -62.847863 Z M 338.634329 -62.847863 " transform="matrix(0.0468795,0,0,0.0468795,0,10.079087)"/>
<path style=" stroke:none;fill-rule:nonzero;fill:rgb(0%,0%,0%);fill-opacity:0.196078;" d="M 1.984375 11.476562 L 21.832031 11.476562 L 21.832031 11.597656 L 1.984375 11.597656 Z M 1.984375 11.476562 "/>
<path style=" stroke:none;fill-rule:nonzero;fill:rgb(90.196079%,90.196079%,90.196079%);fill-opacity:0.588235;" d="M 1.984375 11.597656 L 21.832031 11.597656 L 21.832031 11.722656 L 1.984375 11.722656 Z M 1.984375 11.597656 "/>
<path style=" stroke:none;fill-rule:nonzero;fill:rgb(12.941177%,12.941177%,12.941177%);fill-opacity:0.992157;" d="M 1.984375 11.535156 L 21.832031 11.535156 L 21.832031 11.660156 L 1.984375 11.660156 Z M 1.984375 11.535156 "/>
<path style="fill-rule:nonzero;fill:url(#linear4);stroke-width:3;stroke-linecap:round;stroke-linejoin:round;stroke:rgb(12.941177%,12.941177%,12.941177%);stroke-opacity:1;stroke-miterlimit:4;" d="M 116.40555 -36.350394 C 110.572774 -36.350394 105.823228 -31.684172 105.823228 -25.768071 L 105.823228 69.472834 C 105.823228 75.305611 110.572774 80.055157 116.40555 80.055157 L 158.734842 80.055157 C 164.650943 80.055157 169.317164 75.305611 169.317164 69.472834 L 169.317164 -25.768071 C 169.317164 -31.684172 164.650943 -36.350394 158.734842 -36.350394 Z M 119.071963 -28.434483 L 156.06843 -28.434483 C 159.068143 -28.434483 161.401254 -26.101372 161.401254 -23.184984 L 161.401254 66.806422 C 161.401254 69.72281 159.068143 72.139246 156.06843 72.139246 L 119.071963 72.139246 C 116.155574 72.139246 113.739138 69.72281 113.739138 66.806422 L 113.739138 -23.184984 C 113.739138 -26.101372 116.155574 -28.434483 119.071963 -28.434483 Z M 119.071963 -28.434483 " transform="matrix(0.0468795,0,0,0.0468795,0,10.079087)"/>
<path style="fill-rule:nonzero;fill:url(#linear5);stroke-width:3;stroke-linecap:round;stroke-linejoin:miter;stroke:rgb(12.941177%,12.941177%,12.941177%);stroke-opacity:1;stroke-miterlimit:4;" d="M 126.987873 42.975365 L 148.152519 42.975365 C 153.985295 42.975365 158.734842 47.724911 158.734842 53.557687 L 158.734842 95.886978 C 158.734842 101.80308 153.985295 106.469301 148.152519 106.469301 L 126.987873 106.469301 C 121.155097 106.469301 116.40555 101.80308 116.40555 95.886978 L 116.40555 53.557687 C 116.40555 47.724911 121.155097 42.975365 126.987873 42.975365 Z M 126.987873 42.975365 " transform="matrix(0.0468795,0,0,0.0468795,0,10.079087)"/>
<path style="fill-rule:nonzero;fill:url(#linear6);stroke-width:3;stroke-linecap:round;stroke-linejoin:miter;stroke:rgb(12.941177%,12.941177%,12.941177%);stroke-opacity:1;stroke-miterlimit:4;" d="M 126.987873 -52.26554 L 148.152519 -52.26554 C 153.985295 -52.26554 158.734842 -47.515994 158.734842 -41.683218 L 158.734842 -25.768071 C 158.734842 -19.935294 153.985295 -15.185748 148.152519 -15.185748 L 126.987873 -15.185748 C 121.155097 -15.185748 116.40555 -19.935294 116.40555 -25.768071 L 116.40555 -41.683218 C 116.40555 -47.515994 121.155097 -52.26554 126.987873 -52.26554 Z M 126.987873 -52.26554 " transform="matrix(0.0468795,0,0,0.0468795,0,10.079087)"/>
<path style="fill-rule:nonzero;fill:url(#linear7);stroke-width:3;stroke-linecap:round;stroke-linejoin:round;stroke:rgb(12.941177%,12.941177%,12.941177%);stroke-opacity:1;stroke-miterlimit:4;" d="M 349.216651 -36.350394 C 343.383875 -36.350394 338.634329 -31.684172 338.634329 -25.768071 L 338.634329 69.472834 C 338.634329 75.305611 343.383875 80.055157 349.216651 80.055157 L 391.545943 80.055157 C 397.462044 80.055157 402.128265 75.305611 402.128265 69.472834 L 402.128265 -25.768071 C 402.128265 -31.684172 397.462044 -36.350394 391.545943 -36.350394 Z M 351.883064 -28.434483 L 388.962856 -28.434483 C 391.879244 -28.434483 394.212355 -26.101372 394.212355 -23.184984 L 394.212355 66.806422 C 394.212355 69.72281 391.879244 72.139246 388.962856 72.139246 L 351.883064 72.139246 C 348.966675 72.139246 346.633565 69.72281 346.633565 66.806422 L 346.633565 -23.184984 C 346.633565 -26.101372 348.966675 -28.434483 351.883064 -28.434483 Z M 351.883064 -28.434483 " transform="matrix(0.0468795,0,0,0.0468795,0,10.079087)"/>
<path style="fill-rule:nonzero;fill:url(#linear8);stroke-width:3;stroke-linecap:round;stroke-linejoin:miter;stroke:rgb(12.941177%,12.941177%,12.941177%);stroke-opacity:1;stroke-miterlimit:4;" d="M 359.798974 42.975365 L 380.96362 42.975365 C 386.879721 42.975365 391.545943 47.724911 391.545943 53.557687 L 391.545943 95.886978 C 391.545943 101.80308 386.879721 106.469301 380.96362 106.469301 L 359.798974 106.469301 C 353.966198 106.469301 349.216651 101.80308 349.216651 95.886978 L 349.216651 53.557687 C 349.216651 47.724911 353.966198 42.975365 359.798974 42.975365 Z M 359.798974 42.975365 " transform="matrix(0.0468795,0,0,0.0468795,0,10.079087)"/>
<path style="fill-rule:nonzero;fill:url(#linear9);stroke-width:3;stroke-linecap:round;stroke-linejoin:miter;stroke:rgb(12.941177%,12.941177%,12.941177%);stroke-opacity:1;stroke-miterlimit:4;" d="M 359.798974 -52.26554 L 380.96362 -52.26554 C 386.879721 -52.26554 391.545943 -47.515994 391.545943 -41.683218 L 391.545943 -25.768071 C 391.545943 -19.935294 386.879721 -15.185748 380.96362 -15.185748 L 359.798974 -15.185748 C 353.966198 -15.185748 349.216651 -19.935294 349.216651 -25.768071 L 349.216651 -41.683218 C 349.216651 -47.515994 353.966198 -52.26554 359.798974 -52.26554 Z M 359.798974 -52.26554 " transform="matrix(0.0468795,0,0,0.0468795,0,10.079087)"/>
</g>
</svg>

<svg height="32" viewBox="0 0 24 24" width="32" xmlns="http://www.w3.org/2000/svg" xmlns:xlink="http://www.w3.org/1999/xlink"><linearGradient id="a" gradientUnits="userSpaceOnUse" x1="11.90752" x2="11.90752" y1="21.02648" y2="22.01878896"><stop offset="0" stop-opacity=".275"/><stop offset="1" stop-opacity="0"/></linearGradient><linearGradient id="b"><stop offset="0" stop-opacity=".314"/><stop offset=".222" stop-opacity=".275"/><stop offset="1" stop-opacity="0"/></linearGradient><radialGradient id="c" cx="450.909" cy="189.579" gradientTransform="matrix(0 -.0586 -.10548 0 39.842 47.696)" gradientUnits="userSpaceOnUse" r="21.167" xlink:href="#b"/><radialGradient id="d" cx="450.909" cy="189.579" gradientTransform="matrix(0 .0586 .10548 0 -15.903 -5.646)" gradientUnits="userSpaceOnUse" r="21.167" xlink:href="#b"/><radialGradient id="e" cx="450.909" cy="189.579" gradientTransform="matrix(0 -.0586 .10548 0 -15.903 47.696)" gradientUnits="userSpaceOnUse" r="21.167" xlink:href="#b"/><radialGradient id="f" cx="450.909" cy="189.579" gradientTransform="matrix(0 .0586 -.10548 0 39.842 -5.646)" gradientUnits="userSpaceOnUse" r="21.167" xlink:href="#b"/><linearGradient id="g"><stop offset="0" stop-color="#bcaaa4"/><stop offset="1" stop-color="#a1887f"/></linearGradient><linearGradient id="h" gradientUnits="userSpaceOnUse" x1="11.90752" x2="11.90752" xlink:href="#g" y1="2.17289104" y2="21.02648"/><linearGradient id="i"><stop offset="0" stop-color="#a1887f"/><stop offset="1" stop-color="#8d6e63"/></linearGradient><linearGradient id="j" gradientUnits="userSpaceOnUse" x1="116.417" x2="116.417" xlink:href="#i" y1="-168.667" y2="233.5"/><linearGradient id="k" gradientUnits="userSpaceOnUse" x1="349.25" x2="349.25" xlink:href="#i" y1="-168.667" y2="233.5"/><linearGradient id="l"><stop offset="0" stop-color="#bdbdbd"/><stop offset="1" stop-color="#e0e0e0"/></linearGradient><linearGradient id="m" gradientUnits="userSpaceOnUse" x1="137.5798" x2="137.5798" xlink:href="#l" y1="80.03792044" y2="-36.37727956"/><linearGradient id="n" gradientUnits="userSpaceOnUse" x1="142.875" x2="142.875" xlink:href="#l" y1="106.5" y2="43"/><linearGradient id="o" gradientUnits="userSpaceOnUse" x1="137.583" x2="137.583" xlink:href="#g" y1="-168.667" y2="233.5"/><linearGradient id="p" gradientUnits="userSpaceOnUse" x1="370.4138" x2="370.4138" xlink:href="#l" y1="80.03792044" y2="-36.37727956"/><linearGradient id="q" gradientUnits="userSpaceOnUse" x1="375.709" x2="375.709" xlink:href="#l" y1="106.5" y2="43"/><linearGradient id="r" gradientUnits="userSpaceOnUse" x1="370.417" x2="370.417" xlink:href="#g" y1="-168.667" y2="233.5"/><path d="m2.977 21.027a.992.992 0 0 1 -.993-.996v-.12c0 .546.442.991.993.991h17.863a.994.994 0 0 0 .992-.992v.121c0 .551-.445.996-.992.996zm0 0" fill-opacity=".196"/><path d="m3.844 21.027h16.25v.993h-16.25zm0 0" fill="url(#a)"/><path d="m20.094 21.027h1.984v-.996h-1.984zm0 0" fill="url(#c)"/><path d="m3.844 21.027h-1.985v.993h1.985zm0 0" fill="url(#d)"/><path d="m3.844 21.027h-1.985v-.996h1.985zm0 0" fill="url(#e)"/><path d="m20.094 21.027h1.984v.993h-1.984zm0 0" fill="url(#f)"/><path d="m2.73 2.172h18.356c.41 0 .746.332.746.746v17.363c0 .41-.336.746-.746.746h-18.356a.746.746 0 0 1 -.746-.746v-17.363c0-.414.332-.746.746-.746zm0 0" fill="url(#h)"/><path d="m2.73 2.172a.744.744 0 0 0 -.746.746v.246c0-.41.332-.742.746-.742h18.356c.414 0 .746.332.746.742v-.246a.744.744 0 0 0 -.746-.746zm0 0" fill="#fff" fill-opacity=".392"/><path d="m2.73 21.027a.744.744 0 0 1 -.746-.746v-.25c0 .414.332.746.746.746h18.356a.744.744 0 0 0 .746-.746v.25a.744.744 0 0 1 -.746.746zm0 0" fill="#050505" fill-opacity=".235"/><path d="m2.73 2.102a.814.814 0 0 0 -.816.816v17.363c0 .45.363.817.816.817h18.356c.45 0 .816-.368.816-.817v-17.363a.816.816 0 0 0 -.816-.816zm0 .14h18.356c.375 0 .676.301.676.676v17.363c0 .375-.301.676-.676.676h-18.356a.674.674 0 0 1 -.675-.676v-17.363c0-.375.3-.676.675-.676zm0 0" fill="#212121"/><path d="m105.823-62.848h63.494c5.833 0 10.582 4.75 10.582 10.582v158.736c0 5.916-4.75 10.583-10.582 10.583h-63.494a10.544 10.544 0 0 1 -10.582-10.583v-158.736c0-5.832 4.75-10.582 10.582-10.582zm0 0" fill="url(#j)" stroke="#212121" stroke-linecap="round" stroke-width="3" transform="matrix(.04688 0 0 .04688 0 10.08)"/><path d="m338.634-62.848h63.494c5.916 0 10.583 4.75 10.583 10.582v158.736c0 5.916-4.667 10.583-10.583 10.583h-63.494a10.544 10.544 0 0 1 -10.582-10.583v-158.736c0-5.832 4.75-10.582 10.582-10.582zm0 0" fill="url(#k)" stroke="#212121" stroke-linecap="round" stroke-width="3" transform="matrix(.04688 0 0 .04688 0 10.08)"/><path d="m1.984 11.477h19.848v.12h-19.848zm0 0" fill-opacity=".196"/><path d="m1.984 11.598h19.848v.125h-19.848zm0 0" fill="#e6e6e6" fill-opacity=".588"/><path d="m1.984 11.535h19.848v.125h-19.848zm0 0" fill="#212121" fill-opacity=".992"/><g stroke="#212121" stroke-linecap="round" stroke-width="3"><path d="m116.406-36.35a10.544 10.544 0 0 0 -10.583 10.582v95.24c0 5.834 4.75 10.583 10.583 10.583h42.329c5.916 0 10.582-4.75 10.582-10.582v-95.241c0-5.916-4.666-10.582-10.582-10.582zm2.666 7.916h36.996c3 0 5.333 2.333 5.333 5.249v89.991a5.316 5.316 0 0 1 -5.333 5.333h-36.996c-2.916 0-5.333-2.416-5.333-5.333v-89.991c0-2.916 2.417-5.25 5.333-5.25zm0 0" fill="url(#m)" stroke-linejoin="round" transform="matrix(.04688 0 0 .04688 0 10.08)"/><path d="m126.988 42.975h21.165c5.832 0 10.582 4.75 10.582 10.583v42.329c0 5.916-4.75 10.582-10.582 10.582h-21.165a10.544 10.544 0 0 1 -10.582-10.582v-42.33c0-5.832 4.75-10.582 10.582-10.582zm0 0" fill="url(#n)" transform="matrix(.04688 0 0 .04688 0 10.08)"/><path d="m126.988-52.266h21.165c5.832 0 10.582 4.75 10.582 10.583v15.915c0 5.833-4.75 10.582-10.582 10.582h-21.165c-5.833 0-10.582-4.75-10.582-10.582v-15.915c0-5.833 4.75-10.583 10.582-10.583zm0 0" fill="url(#o)" transform="matrix(.04688 0 0 .04688 0 10.08)"/><path d="m349.217-36.35a10.544 10.544 0 0 0 -10.583 10.582v95.24c0 5.834 4.75 10.583 10.583 10.583h42.329c5.916 0 10.582-4.75 10.582-10.582v-95.241c0-5.916-4.666-10.582-10.582-10.582zm2.666 7.916h37.08a5.228 5.228 0 0 1 5.25 5.249v89.991c0 2.917-2.334 5.333-5.25 5.333h-37.08c-2.916 0-5.25-2.416-5.25-5.333v-89.991a5.228 5.228 0 0 1 5.25-5.25zm0 0" fill="url(#p)" stroke-linejoin="round" transform="matrix(.04688 0 0 .04688 0 10.08)"/><path d="m359.799 42.975h21.165c5.916 0 10.582 4.75 10.582 10.583v42.329c0 5.916-4.666 10.582-10.582 10.582h-21.165a10.544 10.544 0 0 1 -10.582-10.582v-42.33c0-5.832 4.75-10.582 10.582-10.582zm0 0" fill="url(#q)" transform="matrix(.04688 0 0 .04688 0 10.08)"/><path d="m359.799-52.266h21.165c5.916 0 10.582 4.75 10.582 10.583v15.915a10.544 10.544 0 0 1 -10.582 10.582h-21.165c-5.833 0-10.582-4.75-10.582-10.582v-15.915c0-5.833 4.75-10.583 10.582-10.583zm0 0" fill="url(#r)" transform="matrix(.04688 0 0 .04688 0 10.08)"/></g></svg>
